res/media/img/icon/sn/Twitter.svg

<svg xmlns="http://www.w3.org/2000/svg" xmlns:xlink="http://www.w3.org/1999/xlink" width="512" zoomAndPan="magnify" viewBox="0 0 384 383.999986" height="512" preserveAspectRatio="xMidYMid meet" version="1.0"><path fill="#ffffff" d="M 384 192 C 384 298.078125 298.078125 384 192 384 C 85.921875 384 0 298.078125 0 192 C 0 85.921875 85.921875 0 192 0 C 298.078125 0 384 85.921875 384 192 Z M 156.863281 293.28125 C 242.015625 293.28125 288.574219 222.71875 288.574219 161.566406 C 288.574219 159.550781 288.574219 157.535156 288.480469 155.617188 C 297.503906 149.089844 305.375 140.929688 311.617188 131.617188 C 303.359375 135.265625 294.433594 137.761719 285.023438 138.910156 C 294.625 133.152344 301.921875 124.128906 305.375 113.28125 C 296.449219 118.558594 286.558594 122.398438 276 124.511719 C 267.550781 115.488281 255.550781 109.921875 242.207031 109.921875 C 216.671875 109.921875 195.9375 130.65625 195.9375 156.191406 C 195.9375 159.839844 196.320312 163.390625 197.183594 166.753906 C 158.6875 164.832031 124.609375 146.398438 101.761719 118.367188 C 97.824219 125.183594 95.519531 133.152344 95.519531 141.601562 C 95.519531 157.632812 103.679688 171.839844 116.160156 180.097656 C 108.574219 179.902344 101.472656 177.792969 95.230469 174.335938 C 95.230469 174.527344 95.230469 174.71875 95.230469 174.910156 C 95.230469 197.375 111.167969 216 132.382812 220.320312 C 128.542969 221.375 124.414062 221.953125 120.191406 221.953125 C 117.214844 221.953125 114.335938 221.664062 111.457031 221.089844 C 117.3125 239.519531 134.398438 252.863281 154.65625 253.246094 C 138.816406 265.632812 118.847656 273.023438 97.152344 273.023438 C 93.40625 273.023438 89.761719 272.832031 86.113281 272.351562 C 106.367188 285.601562 130.753906 293.28125 156.863281 293.28125 " fill-opacity="1" fill-rule="nonzero"/></svg>

<svg xmlns="http://www.w3.org/2000/svg" version="1.0" viewBox="0 0 384 384"><path fill="#fff" d="M384 192c0 106.078-85.922 192-192 192S0 298.078 0 192 85.922 0 192 0s192 85.922 192 192zM156.863 293.281c85.153 0 131.711-70.562 131.711-131.715 0-2.015 0-4.03-.094-5.949a94.868 94.868 0 0023.137-24c-8.258 3.649-17.183 6.145-26.594 7.293 9.602-5.758 16.899-14.781 20.352-25.629A93.822 93.822 0 01276 124.511c-8.45-9.023-20.45-14.59-33.793-14.59-25.535 0-46.27 20.735-46.27 46.27 0 3.649.383 7.2 1.247 10.563-38.496-1.922-72.575-20.356-95.422-48.387a46.43 46.43 0 00-6.242 23.235 46.087 46.087 0 0020.64 38.496c-7.586-.196-14.687-2.305-20.93-5.762v.574c0 22.465 15.938 41.09 37.153 45.41a46.203 46.203 0 01-12.192 1.633c-2.976 0-5.855-.289-8.734-.863 5.856 18.43 22.941 31.773 43.2 32.156-15.84 12.387-35.81 19.777-57.505 19.777-3.746 0-7.39-.191-11.039-.671 20.254 13.25 44.64 20.93 70.75 20.93"/></svg>
